src/16/places/folder-visiting.svg

<?xml version="1.0" encoding="UTF-8" standalone="no"?>
<svg
   xmlns:dc="http://purl.org/dc/elements/1.1/"
   xmlns:cc="http://creativecommons.org/ns#"
   xmlns:rdf="http://www.w3.org/1999/02/22-rdf-syntax-ns#"
   xmlns:svg="http://www.w3.org/2000/svg"
   xmlns="http://www.w3.org/2000/svg"
   xmlns:sodipodi="http://sodipodi.sourceforge.net/DTD/sodipodi-0.dtd"
   xmlns:inkscape="http://www.inkscape.org/namespaces/inkscape"
   width="16"
   height="16"
   version="1.1"
   viewBox="0 0 16 16"
   id="svg9"
   sodipodi:docname="folder-visiting.svg"
   inkscape:version="0.92.4 (5da689c313, 2019-01-14)">
  <metadata
     id="metadata13">
    <rdf:RDF>
      <cc:Work
         rdf:about="">
        <dc:format>image/svg+xml</dc:format>
        <dc:type
           rdf:resource="http://purl.org/dc/dcmitype/StillImage" />
      </cc:Work>
    </rdf:RDF>
  </metadata>
  <sodipodi:namedview
     pagecolor="#ffffff"
     bordercolor="#666666"
     borderopacity="1"
     objecttolerance="10"
     gridtolerance="10"
     guidetolerance="10"
     inkscape:pageopacity="0"
     inkscape:pageshadow="2"
     inkscape:window-width="1366"
     inkscape:window-height="710"
     id="namedview11"
     showgrid="true"
     inkscape:zoom="20.85965"
     inkscape:cx="-3.4852008"
     inkscape:cy="8.863079"
     inkscape:window-x="0"
     inkscape:window-y="0"
     inkscape:window-maximized="1"
     inkscape:current-layer="svg9">
    <inkscape:grid
       type="xygrid"
       id="grid828" />
  </sodipodi:namedview>
  <defs
     id="defs3">
    <style
       id="current-color-scheme"
       type="text/css">
   .ColorScheme-Text { color:#727272; } .ColorScheme-Highlight { color:#5294e2; }
  </style>
  </defs>
  <rect
     style="display:inline;opacity:1;fill:#000000;fill-opacity:0.26666667;stroke:none;stroke-width:1;stroke-linecap:round;stroke-linejoin:miter;stroke-miterlimit:4;stroke-dasharray:none;stroke-opacity:1;paint-order:stroke markers fill;enable-background:new"
     id="rect23"
     width="14"
     height="7"
     x="0.99980003"
     y="1"
     rx="1"
     ry="1" />
  <rect
     style="opacity:1;fill:#f9f9f9;fill-opacity:1;stroke:none;stroke-width:1;stroke-linecap:round;stroke-linejoin:miter;stroke-miterlimit:4;stroke-dasharray:none;stroke-opacity:1;paint-order:stroke markers fill"
     id="rect816"
     width="12"
     height="6"
     x="2"
     y="2"
     rx="0"
     ry="0" />
  <path
     inkscape:connector-curvature="0"
     style="display:inline;fill:#003579;fill-opacity:0.56078413;stroke:none;enable-background:new"
     d="M 8,3 7,5 H 1 C 0.446,5 0,5.446 0,6 v 8 c 0,0.554 0.446,1 1,1 h 14 c 0.554,0 1,-0.446 1,-1 V 8 6 4 C 16,3.5 15.5,3 15,3 Z"
     id="path4-3"
     sodipodi:nodetypes="ccssssssccssc" />
  <path
     sodipodi:nodetypes="ccccccccccccc"
     id="path819"
     d="M 8.6077176,4.0000001 7.7316582,6 H 1 V 6.8333333 13.166667 14 H 14.14089 15 V 8.1666669 6.5000001 5 4 Z"
     style="display:inline;fill:#6ba4e7;fill-opacity:1;stroke:none;stroke-width:0.99999994;enable-background:new"
     inkscape:connector-curvature="0" />
  <path
     style="opacity:0.15;fill:#ffffff;fill-opacity:1;stroke:none;stroke-width:1;stroke-linecap:round;stroke-linejoin:miter;stroke-miterlimit:4;stroke-dasharray:none;stroke-opacity:1;paint-order:stroke markers fill"
     d="M 8.9179688 3 L 7.8574219 3.2832031 L 7 5 L 1.453125 5 L 0 5.3886719 L 0 7.4589844 L 15.630859 3.2714844 C 15.450374 3.1112925 15.227721 3 15 3 L 8.9179688 3 z M 16 4.2285156 L 0 8.5175781 L 0 10.587891 L 16 6.2988281 L 16 4.2285156 z M 16 7.3535156 L 0 11.642578 L 0 13.712891 L 16 9.4257812 L 16 7.3535156 z M 16 10.480469 L 0 14.769531 L 0 15 L 6.8632812 15 L 16 12.550781 L 16 10.480469 z M 16 13.607422 L 10.806641 15 L 16 15 L 16 13.607422 z "
     id="rect830" />
</svg>

<svg xmlns="http://www.w3.org/2000/svg" width="16" height="16" version="1.1" id="svg9"><defs id="defs3"><style id="current-color-scheme" type="text/css"></style></defs><rect id="rect23" width="14" height="7" x="1" y="1" rx="1" ry="1" display="inline" opacity="1" fill="#000" fill-opacity=".267" stroke="none" stroke-width="1" stroke-linecap="round" stroke-linejoin="miter" stroke-miterlimit="4" stroke-dasharray="none" stroke-opacity="1" paint-order="stroke markers fill"/><rect id="rect816" width="12" height="6" x="2" y="2" rx="0" ry="0" opacity="1" fill="#f9f9f9" fill-opacity="1" stroke="none" stroke-width="1" stroke-linecap="round" stroke-linejoin="miter" stroke-miterlimit="4" stroke-dasharray="none" stroke-opacity="1" paint-order="stroke markers fill"/><path d="M8 3L7 5H1c-.554 0-1 .446-1 1v8c0 .554.446 1 1 1h14c.554 0 1-.446 1-1V4c0-.5-.5-1-1-1z" id="path4-3" display="inline" fill="#003579" fill-opacity=".561" stroke="none"/><path id="path819" d="M8.608 4l-.876 2H1v8h14V4z" display="inline" fill="#6ba4e7" fill-opacity="1" stroke="none" stroke-width="1"/><path d="M8.918 3l-1.06.283L7 5H1.453L0 5.389v2.07l15.63-4.188C15.45 3.111 15.229 3 15 3H8.918zM16 4.229L0 8.518v2.07l16-4.29v-2.07zm0 3.125L0 11.643v2.07l16-4.287V7.354zm0 3.126L0 14.77V15h6.863L16 12.55v-2.07zm0 3.127L10.807 15H16v-1.393z" id="rect830" opacity=".15" fill="#fff" fill-opacity="1" stroke="none" stroke-width="1" stroke-linecap="round" stroke-linejoin="miter" stroke-miterlimit="4" stroke-dasharray="none" stroke-opacity="1" paint-order="stroke markers fill"/></svg>
